!!!COM: Haydn, Franz Joseph
!!!OPR: Symphony in B-flat Major
!!!OTL: Affettuoso 
!!!OMV: 3
!!!SCT: H I:98
!!!SCA: Thematisch-bibliographisches Werkevererzeichnis (A. van Hoboken)
!!!YOR: Dover Edition; reprint of Eulenburg Edition
!!!EED: Frances Bennion
!!!ENC: Frances Bennion
!!!CDT: 1732/3/31/-1809/5/31/
!!!OCY: Österreich
!!!YEC: Copyright (c) 1994, 2000 Center for Computer Assisted Research in the Humanities
!!!YEM: Rights to all derivative editions reserved.
!!!YEM: Refer to licensing agreement for further details.
!!!YEN: United States of America
**kern	**kern	**kern	**kern	**kern	**kern	**kern	**kern	**kern	**kern	**kern	**kern	**kern	**kern	**kern
*k[b-e-]	*k[b-e-]	*k[b-e-]	*k[b-e-]	*k[b-e-]	*k[b-e-]	*k[b-e-]	*k[b-e-]	*k[b-e-]	*k[b-e-]	*k[b-e-]	*k[]	*k[]	*k[]	*k[]
*B-:	*B-:	*B-:	*B-:	*B-:	*B-:	*B-:	*B-:	*B-:	*B-:	*B-:	*B-:	*B-:	*B-:	*B-:
*clefF	*clefF4	*clefF	*clefF	*clefC3	*clefF4	*clefF4	*clefF	*clefF	*clefF4	*clefF4	*clefF	*clefF	*clefF	*clefF
*M3/4	*M3/4	*M3/4	*M3/4	*M3/4	*M3/4	*M3/4	*M3/4	*M3/4	*M3/4	*M3/4	*M3/4	*M3/4	*M3/4	*M3/4
*tb8	*tb8	*tb8	*tb8	*tb8	*tb8	*tb8	*tb8	*tb8	*tb8	*tb8	*tb8	*tb8	*tb8	*tb8
=0-	=0-	=0-	=0-	=0-	=0-	=0-	=0-	=0-	=0-	=0-	=0-	=0-	=0-	=0-
2r	2r	2r	2r	2r	2r	2r	2r	2r	2r	2r	2r	2r	2r	2r
4f	4r	4f	4r	4r	4r	4r	4r	4r	4r	4r	4r	4r	4r	4r
=1	=1	=1	=1	=1	=1	=1	=1	=1	=1	=1	=1	=1	=1	=1
4ff	4BB-	4ff	4dd 4f 4B-	4b-	4B-	4B-	4ff	4dd	4B-	4B-	4cc	4c	4cc	4c
4dd	2r	4dd	2r	2r	2r	2r	2r	2r	2r	2r	2r	2r	2r	2r
4b-	.	4b-	.	.	.	.	.	.	.	.	.	.	.	.
=2	=2	=2	=2	=2	=2	=2	=2	=2	=2	=2	=2	=2	=2	=2
4bb-	4BB-	4bb-	4b- 4gg 4e-	4e-	4E-	4E-	4gg	4ee-	4E-	4E-	4cc	4c	4cc	4c
4gg	2r	4gg	2r	2r	2r	2r	2r	2r	2r	2r	2r	2r	2r	2r
4ee-	.	4ee-	.	.	.	.	.	.	.	.	.	.	.	.
=3	=3	=3	=3	=3	=3	=3	=3	=3	=3	=3	=3	=3	=3	=3
4cc	4FF	4cc	4a 4e-	4c	4F	4F	4cc	2.a	4F	4F	4g	4g	4g	4g
8ff	8FF	8ff	4e- 4a	4c	4F	4F	8ff	.	4c	4c	4dd	4g	4dd	4g
8ee-	8FF	8ee-	.	.	.	.	8ee-	.	.	.	.	.	.	.
8cc	4FF	8cc	4e- 4a	4c	4F	4F	8cc	.	4e-	4e-	4dd	4g	4dd	4g
8a	.	8a	.	.	.	.	8a	.	.	.	.	.	.	.
=4	=4	=4	=4	=4	=4	=4	=4	=4	=4	=4	=4	=4	=4	=4
4b-	4BB-	4b-	4b- 4d	4d	4B-	4B-	4b-	4b-	4d	4d	4ee	4cc	4ee	4cc
4f	4r	4f	2r	2r	2r	2r	4f	2r	4r	4r	4r	4r	4r	4r
4b-	4BB-	4r	.	.	.	.	4b-	.	4B-	4BB-	4cc	4e	4cc	4e
=5	=5	=5	=5	=5	=5	=5	=5	=5	=5	=5	=5	=5	=5	=5
4cc	4FF	2.r	2.r	2.r	2.r	2.r	4cc	2.a	4c	2.FF	2.dd	2.g	2.dd	2.g
8ff	8FF	.	.	.	.	.	8ff	.	8f	.	.	.	.	.
8ee-	8FF	.	.	.	.	.	8ee-	.	8e-	.	.	.	.	.
8cc	4FF	.	.	.	.	.	8cc	.	8c	.	.	.	.	.
8a	.	.	.	.	.	.	8a	.	8A	.	.	.	.	.
=6	=6	=6	=6	=6	=6	=6	=6	=6	=6	=6	=6	=6	=6	=6
4b-	4BB-	2r	2r	2r	2r	2r	4b-	4b-	4B-	4BB-	4ee	4cc	4ee	4cc
4f	2r	.	.	.	.	.	4f	4r	4F	4r	4r	4r	2r	2r
4cc	.	4cc	4cc	4f	4A	4A	4cc	4f	4A	4A	4dd	4g	.	.
=7	=7	=7	=7	=7	=7	=7	=7	=7	=7	=7	=7	=7	=7	=7
4dd	2.r	4dd	4dd	2f	2B-	2B-	4dd	4f	2B-	2B-	2ee	2cc	2.r	2.r
4b-	.	4b-	4b-	.	.	.	4r	4r	.	.	.	.	.	.
4ee	.	4ee	4ee	4b-	4G	4G	4ee	4b-	4G	4G	4dd	4dd	.	.
=8	=8	=8	=8	=8	=8	=8	=8	=8	=8	=8	=8	=8	=8	=8
4aa	4FF	4aa	4aa	4a	2F	2F	4ff	4a	2.F	2.F	2.dd	2.g	2.r	2.r
4ff	2r	4ff	4ff	4r	.	.	4r	4r	.	.	.	.	.	.
4ccc	.	4ccc	4cc	4f	4AA	4AA	4ccc	4ff	.	.	.	.	.	.
=9	=9	=9	=9	=9	=9	=9	=9	=9	=9	=9	=9	=9	=9	=9
8ddd	2.r	8ddd	8dd	4f	4BB-	4BB-	4ddd	4ff	4F	4F	4ee	4cc	2.r	2.r
8ccc	.	8ccc	8cc	.	.	.	.	.	.	.	.	.	.	.
8bb-	.	8bb-	8b-	2r	2r	2r	2r	2r	2r	2r	2r	2r	.	.
8aa	.	8aa	8a	.	.	.	.	.	.	.	.	.	.	.
8gg	.	8gg	8g	.	.	.	.	.	.	.	.	.	.	.
8ff	.	8ff	8f	.	.	.	.	.	.	.	.	.	.	.
=10	=10	=10	=10	=10	=10	=10	=10	=10	=10	=10	=10	=10	=10	=10
2.gg	4BB-	8ee	2.e 2.G	2.C 2.c	2.B-	2.B-	2.ee	2.cc	2.B-	2.B-	2.dd	2.dd	2.dd	2.dd
.	.	8dd	.	.	.	.	.	.	.	.	.	.	.	.
.	2r	8cc	.	.	.	.	.	.	.	.	.	.	.	.
.	.	8b-	.	.	.	.	.	.	.	.	.	.	.	.
.	.	8a	.	.	.	.	.	.	.	.	.	.	.	.
.	.	8g	.	.	.	.	.	.	.	.	.	.	.	.
=11	=11	=11	=11	=11	=11	=11	=11	=11	=11	=11	=11	=11	=11	=11
2ff	2.r	2f	2f	4d	4B	4B	2ff	4dd	4B	4B	4ee	4ee	4ee	4ee
.	.	.	.	4c	4c	4c	.	4cc	4c	4c	4dd	4dd	4dd	4dd
4ee	.	4g	4e	4B-	4C	4C	4gg	4b-	4C	4C	4dd	4dd	4dd	4dd
=12	=12	=12	=12	=12	=12	=12	=12	=12	=12	=12	=12	=12	=12	=12
4ff	4FF	4f	4f	4A	4F	4F	4ff	4a	4F	4F	4dd	4g	4dd	4g
2r	2r	4dd	4b-	2r	2r	2r	2r	2r	2r	2r	2r	2r	2r	2r
.	.	4b	4g#	.	.	.	.	.	.	.	.	.	.	.
=13	=13	=13	=13	=13	=13	=13	=13	=13	=13	=13	=13	=13	=13	=13
2.r	2.r	4cc	4a	2.r	2.r	2.r	2.r	2.r	2.r	2.r	2.r	2.r	2.r	2.r
.	.	4g	4e	.	.	.	.	.	.	.	.	.	.	.
.	.	4a	4f	.	.	.	.	.	.	.	.	.	.	.
=14	=14	=14	=14	=14	=14	=14	=14	=14	=14	=14	=14	=14	=14	=14
2.r	2.r	[2.g	[2.f	4B-	4B-	2.r	2.r	2.r	2.r	2.r	2.r	2.r	2.r	2.r
.	.	.	.	4c	4c	.	.	.	.	.	.	.	.	.
.	.	.	.	4d	4d	.	.	.	.	.	.	.	.	.
=15	=15	=15	=15	=15	=15	=15	=15	=15	=15	=15	=15	=15	=15	=15
2.r	2.r	4g]	2.f_	2.e-	2.e-	2.r	2.r	2.r	2.r	2.r	2.r	2.r	2.r	2.r
.	.	4a-	.	.	.	.	.	.	.	.	.	.	.	.
.	.	4a	.	.	.	.	.	.	.	.	.	.	.	.
=16	=16	=16	=16	=16	=16	=16	=16	=16	=16	=16	=16	=16	=16	=16
2.r	2.r	2b-	4f]	2d	2d	2.r	2.r	2.r	2.r	2.r	2.r	2.r	2.r	2.r
.	.	.	4g	.	.	.	.	.	.	.	.	.	.	.
.	.	4b	4a-	4d-	4d-	.	.	.	.	.	.	.	.	.
=17	=17	=17	=17	=17	=17	=17	=17	=17	=17	=17	=17	=17	=17	=17
2.r	2.r	4cc	2a	2c	2c	2.r	2.r	2.r	2.r	2.r	2.r	2.r	2.r	2.r
.	.	4f	.	.	.	.	.	.	.	.	.	.	.	.
.	.	4g	4e	4B-	4C	.	.	.	.	.	.	.	.	.
=18	=18	=18	=18	=18	=18	=18	=18	=18	=18	=18	=18	=18	=18	=18
4r	4FF	4f	4f	4A	4F	2r	4r	4r	4r	4r	2r	2r	2r	2r
4ccc	2r	4aa	4aa	4r	4r	.	4ccc	4aa	4c	4A	.	.	.	.
4bb-	.	4e	4e	4B-	4C	4C	4bb-	4gg	4c	4G	4dd	4dd	4dd	4dd
=19	=19	=19	=19	=19	=19	=19	=19	=19	=19	=19	=19	=19	=19	=19
4aa	4FF	4f	4f	4A	4F	4F	4aa	4ff	4A	4F	4dd	4g	4dd	4g
4ccc	2r	4aa	4aa	4r	4r	4r	4aa	4cc	4c	4A	4r	4r	4r	4r
4ee	.	4G 4e	4G 4e	4B-	4C	4C	4gg	4b-	4B-	4G	4dd	4dd	4dd	4dd
=20	=20	=20	=20	=20	=20	=20	=20	=20	=20	=20	=20	=20	=20	=20
4ff	4FF	4A 4f	4f 4A	4A	4F	4F	4ff	4a	4A	4F	4dd	4g	4dd	4g
4r	2r	4r	4r	4r	4r	4r	4r	4r	4r	4r	4r	4r	4r	4r
4r	.	4r	4f	4r	4r	4r	4r	4f	4r	4r	4r	4r	4r	4r
=21	=21	=21	=21	=21	=21	=21	=21	=21	=21	=21	=21	=21	=21	=21
2r	2.r	2r	4ff	2.A-	2.A-	2.A-	2r	4ff	2.A-	2.A-	2.r	2.r	2.r	2.r
.	.	.	4dd	.	.	.	.	4dd	.	.	.	.	.	.
4ff	.	4ff	4cc	.	.	.	4ff	4cc	.	.	.	.	.	.
=22	=22	=22	=22	=22	=22	=22	=22	=22	=22	=22	=22	=22	=22	=22
4ddd	2.r	4ddd	2b	2G	2G	2G	4ddd	2.b	2G	2G	2.r	2.r	2.r	2.r
4bb	.	4bb	.	.	.	.	4bb	.	.	.	.	.	.	.
4ff	.	4ff	4dd	4b	4B	4B	4ff	.	4B	4B	.	.	.	.
=23	=23	=23	=23	=23	=23	=23	=23	=23	=23	=23	=23	=23	=23	=23
4ee-	2.r	4ee-	4ee-	4ee-	4e-	4e-	4ee-	4cc	4e-	4e-	2.r	2.r	2.r	2.r
2r	.	4cc	4cc	4cc	4c	4c	2r	2r	4c	4c	.	.	.	.
.	.	4g	4g	4g	4G	4G	.	.	4G	4G	.	.	.	.
=24	=24	=24	=24	=24	=24	=24	=24	=24	=24	=24	=24	=24	=24	=24
2.r	2.r	4e-	4e-	4e-	4E-	4E-	2.r	2.r	4E-	4E-	2.r	2.r	2.r	2.r
.	.	4c	4c	4c	4C	4C	.	.	4C	4C	.	.	.	.
.	.	4G	4G	4G	4GG	4GG	.	.	4r	4r	.	.	.	.
=25	=25	=25	=25	=25	=25	=25	=25	=25	=25	=25	=25	=25	=25	=25
4r	2.r	4A-	4A-	[2.A-	[2.AA-	[2.AA-	[2.cc	[2.ee-	2.r	2.r	2.r	2.r	2.r	2.r
4eee-	.	4c	4e- 4c	.	.	.	.	.	.	.	.	.	.	.
4eee-	.	4e-	4e- 4c	.	.	.	.	.	.	.	.	.	.	.
=26	=26	=26	=26	=26	=26	=26	=26	=26	=26	=26	=26	=26	=26	=26
2eee-	2.r	4a-	2.e- 2.c	2.A-]	2.AA-]	2.AA-]	2.cc]	2.ee-_	2.r	2.r	2.r	2.r	2.r	2.r
.	.	4cc	.	.	.	.	.	.	.	.	.	.	.	.
8ccc	.	4ee-	.	.	.	.	.	.	.	.	.	.	.	.
8aa-	.	.	.	.	.	.	.	.	.	.	.	.	.	.
=27	=27	=27	=27	=27	=27	=27	=27	=27	=27	=27	=27	=27	=27	=27
4gg	2.r	4dd-	[2.e- 2.d-	[2.B-	[2.GG	[2.GG	[2.dd-	2.ee-_	[2.B-	[2.B-	2.r	2.r	2.r	2.r
4eee-	.	4b-	.	.	.	.	.	.	.	.	.	.	.	.
4eee-	.	4g	.	.	.	.	.	.	.	.	.	.	.	.
=28	=28	=28	=28	=28	=28	=28	=28	=28	=28	=28	=28	=28	=28	=28
2eee-	2.r	4e-	2.e- 2.d-]	2.B-]	2.GG]	2.GG]	2.dd-]	2.ee-_	2.B-]	2.B-]	2.r	2.r	2.r	2.r
.	.	4d-	.	.	.	.	.	.	.	.	.	.	.	.
8ddd-	.	4B-	.	.	.	.	.	.	.	.	.	.	.	.
8bb-	.	.	.	.	.	.	.	.	.	.	.	.	.	.
=29	=29	=29	=29	=29	=29	=29	=29	=29	=29	=29	=29	=29	=29	=29
4ccc	2.r	4A-	[2.e- 2.c	[2.A-	[2.AA-	[2.AA-	[2.cc	2.ee-_	4A-	4A-	2.r	2.r	2.r	2.r
4eee-	.	4c	.	.	.	.	.	.	2r	2r	.	.	.	.
4eee-	.	4e-	.	.	.	.	.	.	.	.	.	.	.	.
=30	=30	=30	=30	=30	=30	=30	=30	=30	=30	=30	=30	=30	=30	=30
2eee-	2.r	4a-	2.e- 2.c]	2.A-]	2.AA-]	2.AA-]	2.cc]	2.ee-]	2.r	2.r	2.r	2.r	2.r	2.r
.	.	4cc	.	.	.	.	.	.	.	.	.	.	.	.
8ccc	.	4ee-	.	.	.	.	.	.	.	.	.	.	.	.
8aa-	.	.	.	.	.	.	.	.	.	.	.	.	.	.
=31	=31	=31	=31	=31	=31	=31	=31	=31	=31	=31	=31	=31	=31	=31
[2.ff	4BB-	4d	[2.d 2.B-	4F	4A-	4A-	[2.dd	[2.b-	4BBB-	4BBB-	4g	4c	4cc	4e
.	4BB-	4f	.	4F	4A-	4A-	.	.	4A-	4A-	4g	4c	4cc	4e
.	4BB-	4a-	.	4F	4A-	4A-	.	.	4A-	4A-	4g	4c	4cc	4e
=32	=32	=32	=32	=32	=32	=32	=32	=32	=32	=32	=32	=32	=32	=32
2.ff]	4BB-	4b-	4d 4B-]	2.F	2.A-	2.A-	2.dd]	2.b-_	2.A-	2.A-	2.g	2.c	2.cc	2.e
.	8BB-	4dd	4d 4B-	.	.	.	.	.	.	.	.	.	.	.
.	8BB-	.	.	.	.	.	.	.	.	.	.	.	.	.
.	8BB-	4ff	4B- 4d	.	.	.	.	.	.	.	.	.	.	.
.	8BB-	.	.	.	.	.	.	.	.	.	.	.	.	.
=33	=33	=33	=33	=33	=33	=33	=33	=33	=33	=33	=33	=33	=33	=33
4ee-	4BB-	4e-	4B- 4e-	4G	4G	4G	4ee-	2.b-_	4G	4G	4cc	4c	4cc	4c
2r	2r	4gg	4b-	4e-	4E-	4E-	4gg	.	4E-	4E-	2r	2r	2r	2r
.	.	4ff	4b-	4f	4F	4F	4ff	.	4F	4F	.	.	.	.
=34	=34	=34	=34	=34	=34	=34	=34	=34	=34	=34	=34	=34	=34	=34
2.r	2.r	2ee-	4b-	4g	4G	4G	2ee-	4b-]	4G	4G	2.r	2.r	2.r	2.r
.	.	.	4cc	4a	4A	4A	.	4cc	4A	4A	.	.	.	.
.	.	4dd	4b-	4b-	4B-	4B-	4dd	4b-	4B-	4B-	.	.	.	.
=35	=35	=35	=35	=35	=35	=35	=35	=35	=35	=35	=35	=35	=35	=35
2.r	2.r	4dd	2.g	2e-	2E-	2E-	4dd	2.gg	2E-	2E-	2.r	2.r	2.r	2.r
.	.	4cc	.	.	.	.	4cc	.	.	.	.	.	.	.
.	.	4b-	.	4e	4E	4E	4b-	.	4E	4E	.	.	.	.
=36	=36	=36	=36	=36	=36	=36	=36	=36	=36	=36	=36	=36	=36	=36
4.r	4FF	8a	4f	4f	[2.F	[2.F	4ff	4ff	4F	4F	4g	4g	4g	4g
.	.	8b-	.	.	.	.	.	.	.	.	.	.	.	.
.	2r	8cc	4e	2r	.	.	4ee	2r	2r	2r	2r	2r	2r	2r
8ff	.	8f	.	.	.	.	.	.	.	.	.	.	.	.
8gg	.	8g	4e-	.	.	.	4ee-	.	.	.	.	.	.	.
8aa	.	8a	.	.	.	.	.	.	.	.	.	.	.	.
=37	=37	=37	=37	=37	=37	=37	=37	=37	=37	=37	=37	=37	=37	=37
8bb-	2.r	8b-	2d	2.B-	2.F_	2.F_	2dd	2.r	4r	4r	2.r	2.r	2.r	2.r
8ccc	.	8cc	.	.	.	.	.	.	.	.	.	.	.	.
8ddd	.	8dd	.	.	.	.	.	.	4B-	4B-	.	.	.	.
8bb-	.	8b-	.	.	.	.	.	.	.	.	.	.	.	.
8gg	.	8g	4e	.	.	.	4ee	.	4B-	4B-	.	.	.	.
8ee	.	8e	.	.	.	.	.	.	.	.	.	.	.	.
=38	=38	=38	=38	=38	=38	=38	=38	=38	=38	=38	=38	=38	=38	=38
8ff	4FF	8f	4f	4A	2.F_	2.F_	4ff	2.r	4A	4A	4g	4g	4g	4g
8aa	.	8a	.	.	.	.	.	.	.	.	.	.	.	.
8gg	2r	8g	4e	4r	.	.	4ee	.	2r	2r	2r	2r	2r	2r
8bb-	.	8b-	.	.	.	.	.	.	.	.	.	.	.	.
8aa	.	8a	4e-	8c	.	.	4ee-	.	.	.	.	.	.	.
8ccc	.	8cc	.	8A	.	.	.	.	.	.	.	.	.	.
=39	=39	=39	=39	=39	=39	=39	=39	=39	=39	=39	=39	=39	=39	=39
8bb-	2.r	8b-	2d	2.B-	2.F_	2.F_	2dd	2.r	4r	4r	2.r	2.r	2.r	2.r
8ccc	.	8cc	.	.	.	.	.	.	.	.	.	.	.	.
8ddd	.	8dd	.	.	.	.	.	.	4B-	4B-	.	.	.	.
8bb-	.	8b-	.	.	.	.	.	.	.	.	.	.	.	.
8gg	.	8g	4e	.	.	.	4ee	.	4B-	4B-	.	.	.	.
8ee	.	8e	.	.	.	.	.	.	.	.	.	.	.	.
=40	=40	=40	=40	=40	=40	=40	=40	=40	=40	=40	=40	=40	=40	=40
4ff	2.r	8f	4f	4A	4F]	4F]	4ff	2.r	4A	4A	2.r	2.r	2.r	2.r
.	.	8a	.	.	.	.	.	.	.	.	.	.	.	.
2r	.	8b-	2r	2r	2r	2r	2r	.	2r	2r	.	.	.	.
.	.	8cc	.	.	.	.	.	.	.	.	.	.	.	.
.	.	8dd	.	.	.	.	.	.	.	.	.	.	.	.
.	.	8ee-	.	.	.	.	.	.	.	.	.	.	.	.
=41	=41	=41	=41	=41	=41	=41	=41	=41	=41	=41	=41	=41	=41	=41
4ff	4BB-	4ff	4dd 4f 4B-	4B-	4BB-	4BB-	4ff	4dd	4B-	4B-	4cc	4c	4cc	4c
4dd	2r	4dd	2r	2r	2r	2r	2r	2r	2r	2r	2r	2r	2r	2r
4b-	.	4b-	.	.	.	.	.	.	.	.	.	.	.	.
=42	=42	=42	=42	=42	=42	=42	=42	=42	=42	=42	=42	=42	=42	=42
4bb-	4BB-	4bb-	4gg 4b- 4e-	4E-	4EE-	4EE-	4gg	4ee-	4E-	4E-	4cc	4c	4cc	4c
4gg	2r	4gg	2r	2r	2r	2r	2r	2r	2r	2r	2r	2r	2r	2r
4ee-	.	4ee-	.	.	.	.	.	.	.	.	.	.	.	.
=43	=43	=43	=43	=43	=43	=43	=43	=43	=43	=43	=43	=43	=43	=43
4cc	4FF	4cc	4a 4e-	4F	4FF	4FF	4cc	2.a	4F	4F	4g	4g	4g	4g
8ff	8FF	8ff	4a 4e-	4c	4FF	4FF	8ff	.	4c	4c	4dd	4g	4dd	4g
8ee-	8FF	8ee-	.	.	.	.	8ee-	.	.	.	.	.	.	.
8cc	8FF	8cc	4e- 4a	4c	4FF	4FF	8cc	.	4e-	4e-	4dd	4g	4dd	4g
8a	8FF	8a	.	.	.	.	8a	.	.	.	.	.	.	.
=44	=44	=44	=44	=44	=44	=44	=44	=44	=44	=44	=44	=44	=44	=44
4b-	4BB-	4b-	4d 4b-	4d	4BB-	4BB-	4b-	4b-	4d	4d	4ee	4cc	4ee	4cc
4f	2r	4f	2r	2r	2r	2r	4f	2r	2r	2r	2r	2r	2r	2r
4b-	.	4b-	.	.	.	.	4b-	.	.	.	.	.	.	.
=45	=45	=45	=45	=45	=45	=45	=45	=45	=45	=45	=45	=45	=45	=45
4cc	4FF	4cc	4e- 4c	2.r	4A	4A	4cc	4f	4A	4A	4dd	4g	4dd	4g
4cc	4FF	8ff	4e- 4c	.	4A	4A	4cc	4f	4A	4A	4dd	4g	4dd	4g
.	.	8ee-	.	.	.	.	.	.	.	.	.	.	.	.
4r	4r	8cc	4r	.	4r	4r	4r	4r	4r	4r	4r	4r	4r	4r
.	.	8a	.	.	.	.	.	.	.	.	.	.	.	.
=46	=46	=46	=46	=46	=46	=46	=46	=46	=46	=46	=46	=46	=46	=46
2ff	4BB-	4dd	2B- 2f	2.r	2A-	2A-	2dd	2b-	2A-	2A-	2ee	2cc	2ee	2cc
.	2r	8ff	.	.	.	.	.	.	.	.	.	.	.	.
.	.	8dd	.	.	.	.	.	.	.	.	.	.	.	.
4r	.	4b-	4r	.	4r	4r	4r	4r	4r	4r	4r	4r	4r	4r
=47	=47	=47	=47	=47	=47	=47	=47	=47	=47	=47	=47	=47	=47	=47
4r	4r	8gg	4r	2.r	4r	4r	4r	4r	4r	4r	4r	4r	4r	4r
.	.	8ee-	.	.	.	.	.	.	.	.	.	.	.	.
2gg	4BB-	4b-	2e- 2B-	.	2G	2G	2ee-	2b-	2G	2G	2cc	2cc	2cc	2cc
.	4r	8gg	.	.	.	.	.	.	.	.	.	.	.	.
.	.	8ee-	.	.	.	.	.	.	.	.	.	.	.	.
=48	=48	=48	=48	=48	=48	=48	=48	=48	=48	=48	=48	=48	=48	=48
4r	4r	8aa-	4r	4r	4r	4r	4r	4r	4r	4r	4r	4r	4r	4r
.	.	8ff	.	.	.	.	.	.	.	.	.	.	.	.
4bb-	4BB-	8dd	4f 4dd 4A-	4B-	4F	4F	4aa-	4dd	4F	4F	4ee	4cc	4ee	4cc
.	.	8b-	.	.	.	.	.	.	.	.	.	.	.	.
4bb-	4BB-	8aa-	4dd 4f 4A-	4B-	4F	4F	4aa-	4dd	4F	4F	4ee	4cc	4ee	4cc
.	.	8ff	.	.	.	.	.	.	.	.	.	.	.	.
=49	=49	=49	=49	=49	=49	=49	=49	=49	=49	=49	=49	=49	=49	=49
4r	4r	8bb-	4r	4r	4r	4r	4r	4r	4r	4r	4r	4r	4r	4r
.	.	8gg	.	.	.	.	.	.	.	.	.	.	.	.
4bb-	4BB-	8ee-	4ee- 4e- 4G	4B-	4E-	4E-	4gg	4ee-	4E-	4E-	4cc	4cc	4cc	4cc
.	.	8b-	.	.	.	.	.	.	.	.	.	.	.	.
4bb-	4BB-	8g	4ee- 4e- 4G	4B-	4E-	4E-	4gg	4ee-	4E-	4E-	4cc	4cc	4cc	4cc
.	.	8e-	.	.	.	.	.	.	.	.	.	.	.	.
=50	=50	=50	=50	=50	=50	=50	=50	=50	=50	=50	=50	=50	=50	=50
2.ddd-	4BB-	8bb-	2.d-	8g 8B-	8E	8E	2.bb-	2.gg	2.E	2.E	2.cc	2.cc	2.cc	2.cc
.	.	8gg	.	8g 8B-	8E	8E	.	.	.	.	.	.	.	.
.	8BB-	8ee	.	8g 8B-	8E	8E	.	.	.	.	.	.	.	.
.	8BB-	8dd-	.	8g 8B-	8E	8E	.	.	.	.	.	.	.	.
.	8BB-	8b-	.	8g 8B-	8E	8E	.	.	.	.	.	.	.	.
.	8BB-	8g	.	8g 8B-	8E	8E	.	.	.	.	.	.	.	.
=51	=51	=51	=51	=51	=51	=51	=51	=51	=51	=51	=51	=51	=51	=51
2ddd	4FF	4f	4d	2B-	2F	2F	4bb-	4ff	2F	2F	2ee	2cc	2ee	2cc
.	8FF	4dd	4b-	.	.	.	4dd	4b-	.	.	.	.	.	.
.	8FF	.	.	.	.	.	.	.	.	.	.	.	.	.
4ccc	8FF	4cc	4a	4e-	4FF	4FF	4cc	4a	4FF	4FF	4dd	4g	4dd	4g
.	8FF	.	.	.	.	.	.	.	.	.	.	.	.	.
=52	=52	=52	=52	=52	=52	=52	=52	=52	=52	=52	=52	=52	=52	=52
4bb-	4BB-	4b-	4b-	4d	4BB-	4BB-	4b-	4b-	4BB-	4BB-	4cc	4e	4cc	4e
2r	2r	4gg	4ee-	2r	2r	2r	2r	2r	2r	2r	2r	2r	2r	2r
.	.	4ee	4cc#	.	.	.	.	.	.	.	.	.	.	.
=53	=53	=53	=53	=53	=53	=53	=53	=53	=53	=53	=53	=53	=53	=53
2.r	2.r	4ff	4dd	2.r	2.r	2.r	2.r	2.r	2.r	2.r	2.r	2.r	2.r	2.r
.	.	4cc	4a	.	.	.	.	.	.	.	.	.	.	.
.	.	4dd	4b-	.	.	.	.	.	.	.	.	.	.	.
=54	=54	=54	=54	=54	=54	=54	=54	=54	=54	=54	=54	=54	=54	=54
2.r	2.r	[2.cc	[2.b-	4e-	2.r	2.r	2.r	2.r	2.r	2.r	2.r	2.r	2.r	2.r
.	.	.	.	4f	.	.	.	.	.	.	.	.	.	.
.	.	.	.	4g	.	.	.	.	.	.	.	.	.	.
=55	=55	=55	=55	=55	=55	=55	=55	=55	=55	=55	=55	=55	=55	=55
2.r	2.r	4cc]	2.b-_	2.a-	2.r	2.r	2.r	2.r	2.r	2.r	2.r	2.r	2.r	2.r
.	.	4dd-	.	.	.	.	.	.	.	.	.	.	.	.
.	.	4dd	.	.	.	.	.	.	.	.	.	.	.	.
=56	=56	=56	=56	=56	=56	=56	=56	=56	=56	=56	=56	=56	=56	=56
2.r	2.r	2ee-	4b-]	2g	2.r	2.r	2.r	2.r	2.r	2.r	2.r	2.r	2.r	2.r
.	.	.	4cc	.	.	.	.	.	.	.	.	.	.	.
.	.	4ee	4dd-	4g-	.	.	.	.	.	.	.	.	.	.
=57	=57	=57	=57	=57	=57	=57	=57	=57	=57	=57	=57	=57	=57	=57
2.r	2.r	4ff	2dd	2f	2.r	2.r	2.r	2.r	2.r	2.r	2.r	2.r	2.r	2.r
.	.	4b-	.	.	.	.	.	.	.	.	.	.	.	.
.	.	4cc	4a	4F	.	.	.	.	.	.	.	.	.	.
=58	=58	=58	=58	=58	=58	=58	=58	=58	=58	=58	=58	=58	=58	=58
4r	4BB-	4b-	4b-	4B-	2r	2r	4r	4r	4r	4r	2ee	2cc	2ee	2cc
4ff	4r	4ddd	4ff	4r	.	.	4ff	4dd	4f	4d	.	.	.	.
4aa	4FF	4aa	4ee-	4cc	4F	4F	4ee-	4cc	4e-	4c	4dd	4g	4dd	4g
=59	=59	=59	=59	=59	=59	=59	=59	=59	=59	=59	=59	=59	=59	=59
4bb-	4BB-	4bb-	4dd	4dd	4B-	4B-	4dd	4b-	4d	4B-	4cc	4e	4cc	4e
4ddd	4r	4ff	4dd	4r	4r	4r	4ff	4b-	4d	4B-	4ee	4cc	4ee	4cc
4aa	4FF	4a 4e-	4a 4e-	4c	4FF	4FF	4ee-	4cc	4c	4A	4dd	4g	4dd	4g
=60	=60	=60	=60	=60	=60	=60	=60	=60	=60	=60	=60	=60	=60	=60
4bb-	4BB-	4d 4b-	4d 4b-	4d	4BB-	4BB-	4dd	4b-	4B-	4B-	4cc	4e	4cc	4e
4r	2r	4r	4r	4r	4r	4r	4r	4r	4r	4r	4r	4r	4r	4r
4r	.	8b-	4r	4r	4r	4r	4r	4r	8B-	4r	4r	4r	4r	4r
.	.	8dd	.	.	.	.	.	.	8d	.	.	.	.	.
=61	=61	=61	=61	=61	=61	=61	=61	=61	=61	=61	=61	=61	=61	=61
2.r	2.r	8ff	4d	4B-	4B-	4B-	2.r	2.r	8f	2.r	2.r	2.r	2.r	2.r
.	.	8ee	.	.	.	.	.	.	8e	.	.	.	.	.
.	.	8ff	4d	4B-	4B-	4B-	.	.	8f	.	.	.	.	.
.	.	8ee	.	.	.	.	.	.	8e	.	.	.	.	.
.	.	8ff	4d	4B-	4B-	4B-	.	.	8f	.	.	.	.	.
.	.	8ee	.	.	.	.	.	.	8e	.	.	.	.	.
=62	=62	=62	=62	=62	=62	=62	=62	=62	=62	=62	=62	=62	=62	=62
2.r	2.r	4ff	4d	4B-	4B-	4B-	2.r	2.r	4f	2.r	2.r	2.r	2.r	2.r
.	.	4gg	4e-	2r	2r	2r	.	.	4g	.	.	.	.	.
.	.	4ee	4c#	.	.	.	.	.	4e	.	.	.	.	.
=63	=63	=63	=63	=63	=63	=63	=63	=63	=63	=63	=63	=63	=63	=63
2.r	2.r	2ff	4d	4B-	4B-	4B-	2.r	2.r	2f	2.r	2.r	2.r	2.r	2.r
.	.	.	2r	2r	2r	2r	.	.	.	.	.	.	.	.
.	.	8dd	.	.	.	.	.	.	8d	.	.	.	.	.
.	.	8b-	.	.	.	.	.	.	8B-	.	.	.	.	.
=64	=64	=64	=64	=64	=64	=64	=64	=64	=64	=64	=64	=64	=64	=64
2.r	2.r	2f	4d	2r	2r	2r	2.r	2.r	2F	2.r	2.r	2.r	2.r	2.r
.	.	.	4r	.	.	.	.	.	.	.	.	.	.	.
.	.	4f#	4B-	4D	4D	4D	.	.	4F#	.	.	.	.	.
=65	=65	=65	=65	=65	=65	=65	=65	=65	=65	=65	=65	=65	=65	=65
2.r	2.r	8g	4B-	4E-	4E-	4E-	2.r	2.r	8G	2.r	2.r	2.r	2.r	2.r
.	.	8f#	.	.	.	.	.	.	8F#	.	.	.	.	.
.	.	8g	4B-	4E-	4E-	4E-	.	.	8G	.	.	.	.	.
.	.	8f#	.	.	.	.	.	.	8F#	.	.	.	.	.
.	.	8g	4B-	4E-	4E-	4E-	.	.	8G	.	.	.	.	.
.	.	8f#	.	.	.	.	.	.	8F#	.	.	.	.	.
=66	=66	=66	=66	=66	=66	=66	=66	=66	=66	=66	=66	=66	=66	=66
2.r	2.r	4g	4B-	2E-	2E-	2E-	2.r	2.r	4G	2.r	2.r	2.r	2.r	2.r
.	.	4ee-	4B	.	.	.	.	.	4e-	.	.	.	.	.
.	.	8dd	4c	4E	4E	4E	.	.	8d	.	.	.	.	.
.	.	8cc	.	.	.	.	.	.	8c	.	.	.	.	.
=67	=67	=67	=67	=67	=67	=67	=67	=67	=67	=67	=67	=67	=67	=67
2.r	2.r	2b-	2d	2F	2F	2F	2.r	2.r	2B-	2.r	2.r	2.r	2.r	2.r
.	.	4cc	4e-	4A	4FF	4FF	.	.	4c	.	.	.	.	.
=68	=68	=68	=68	=68	=68	=68	=68	=68	=68	=68	=68	=68	=68	=68
2r	2.r	4b-	4d	4B-	4BB-	4BB-	2r	2r	4B-	2r	2r	2r	2r	2r
.	.	4r	4r	4r	4r	4r	.	.	4r	.	.	.	.	.
4r	.	8d	8d	8d	8D	8D	8d	8d	8D	8D	4r	4r	4r	4r
.	.	8cc#	8cc#	8cc#	8c#	8c#	8cc#	8cc#	8c#	8c#	.	.	.	.
=69	=69	=69	=69	=69	=69	=69	=69	=69	=69	=69	=69	=69	=69	=69
2.r	2.r	8dd	8dd	8dd	8d	8d	8dd	8dd	8d	8d	2.r	2.r	2.r	2.r
.	.	8cc#	8cc#	8cc#	8c#	8c#	8cc#	8cc#	8c#	8c#	.	.	.	.
.	.	8dd	8dd	8dd	8d	8d	8dd	8dd	8d	8d	.	.	.	.
.	.	8cc	8cc	8cc	8c	8c	8cc	8cc	8c	8c	.	.	.	.
.	.	8b-	8b-	8b-	8B-	8B-	8b-	8b-	8B-	8B-	.	.	.	.
.	.	8a	8a	8a	8A	8A	8a	8a	8A	8A	.	.	.	.
=70	=70	=70	=70	=70	=70	=70	=70	=70	=70	=70	=70	=70	=70	=70
2.r	2.r	8g	8g	8g	8G	8G	8g	8g	8G	8G	2.r	2.r	2.r	2.r
.	.	8f#	8f#	8f#	8F#	8F#	8f#	8f#	8F#	8F#	.	.	.	.
.	.	8g	8g	8g	8G	8G	8g	8g	8G	8G	.	.	.	.
.	.	8a	8a	8a	8A	8A	8a	8a	8A	8A	.	.	.	.
.	.	8b-	8b-	8b-	8B-	8B-	8b-	8b-	8B-	8B-	.	.	.	.
.	.	8b	8b	8b	8B	8B	8b	8b	8B	8B	.	.	.	.
=71	=71	=71	=71	=71	=71	=71	=71	=71	=71	=71	=71	=71	=71	=71
2.r	2.r	8cc	8cc	8cc	8c	8c	8cc	8cc	8c	8c	2.r	2.r	2.r	2.r
.	.	8b	8b	8b	8B	8B	8b	8b	8B	8B	.	.	.	.
.	.	8cc	8cc	8cc	8c	8c	8cc	8cc	8c	8c	.	.	.	.
.	.	8b-	8b-	8b-	8B-	8B-	8b-	8b-	8B-	8B-	.	.	.	.
.	.	8a	8a	8a	8A	8A	8a	8a	8A	8A	.	.	.	.
.	.	8g	8g	8g	8G	8G	8g	8g	8G	8G	.	.	.	.
=72	=72	=72	=72	=72	=72	=72	=72	=72	=72	=72	=72	=72	=72	=72
4f	2.r	4f	4f	4f	4F	4F	4f	4f	4F	4F	2.r	2.r	2.r	2.r
8a	.	8a	2r	2r	2r	2r	2r	2r	2r	2r	.	.	.	.
8cc	.	8cc	.	.	.	.	.	.	.	.	.	.	.	.
8ff	.	8ff	.	.	.	.	.	.	.	.	.	.	.	.
8aa	.	8aa	.	.	.	.	.	.	.	.	.	.	.	.
=73	=73	=73	=73	=73	=73	=73	=73	=73	=73	=73	=73	=73	=73	=73
8ccc	2.r	8ccc	4a	4f	2.r	2.r	2.r	2.r	2.r	2.r	2.r	2.r	2.r	2.r
8bb	.	8bb	.	.	.	.	.	.	.	.	.	.	.	.
8ccc	.	8ccc	4a	4f	.	.	.	.	.	.	.	.	.	.
8bb	.	8bb	.	.	.	.	.	.	.	.	.	.	.	.
8ccc	.	8ccc	4a	4f	.	.	.	.	.	.	.	.	.	.
8bb	.	8bb	.	.	.	.	.	.	.	.	.	.	.	.
=74	=74	=74	=74	=74	=74	=74	=74	=74	=74	=74	=74	=74	=74	=74
4ccc	2.r	4ccc	4a	[2.f	2.r	2.r	2.r	2.r	2.r	2.r	2.r	2.r	2.r	2.r
4ddd	.	4ddd	4b-	.	.	.	.	.	.	.	.	.	.	.
4bb	.	4bb	4g#	.	.	.	.	.	.	.	.	.	.	.
=75	=75	=75	=75	=75	=75	=75	=75	=75	=75	=75	=75	=75	=75	=75
2ccc	2.r	2ccc	[2.a	2.f_	2.r	2.r	2.r	2.r	2.r	2.r	2.r	2.r	2.r	2.r
8aa	.	8aa	.	.	.	.	.	.	.	.	.	.	.	.
8ff	.	8ff	.	.	.	.	.	.	.	.	.	.	.	.
=76	=76	=76	=76	=76	=76	=76	=76	=76	=76	=76	=76	=76	=76	=76
2cc	2.r	2cc	2a]	2f]	2.r	2.r	2.r	2.r	2.r	2.r	2.r	2.r	2.r	2.r
4cc#	.	4cc#	4r	4r	.	.	.	.	.	.	.	.	.	.
=77	=77	=77	=77	=77	=77	=77	=77	=77	=77	=77	=77	=77	=77	=77
8cc#	2.r	8cc#	4b-	4e	2.r	2.r	2.r	2.r	2.r	2.r	2.r	2.r	2.r	2.r
8dd	.	8dd	.	.	.	.	.	.	.	.	.	.	.	.
8cc#	.	8cc#	4b-	4e	.	.	.	.	.	.	.	.	.	.
8dd	.	8dd	.	.	.	.	.	.	.	.	.	.	.	.
8gg	.	8gg	4r	4r	.	.	.	.	.	.	.	.	.	.
8r	.	8r	.	.	.	.	.	.	.	.	.	.	.	.
=78	=78	=78	=78	=78	=78	=78	=78	=78	=78	=78	=78	=78	=78	=78
8b	2.r	8b	4a	4f	2.r	2.r	2.r	2.r	2.r	2.r	2.r	2.r	2.r	2.r
8cc	.	8cc	.	.	.	.	.	.	.	.	.	.	.	.
8b	.	8b	4a	4f	.	.	.	.	.	.	.	.	.	.
8cc	.	8cc	.	.	.	.	.	.	.	.	.	.	.	.
8ff	.	8ff	4r	4r	.	.	.	.	.	.	.	.	.	.
8r	.	8r	.	.	.	.	.	.	.	.	.	.	.	.
=79	=79	=79	=79	=79	=79	=79	=79	=79	=79	=79	=79	=79	=79	=79
2.r	2.r	8cc#	4b-	4e	2.r	2.r	2.r	2.r	8c#	2.r	2.r	2.r	2.r	2.r
.	.	8dd	.	.	.	.	.	.	8d	.	.	.	.	.
.	.	8cc#	4b-	4e	.	.	.	.	8c#	.	.	.	.	.
.	.	8dd	.	.	.	.	.	.	8d	.	.	.	.	.
.	.	8gg	4r	4r	.	.	.	.	8g	.	.	.	.	.
.	.	8r	.	.	.	.	.	.	8r	.	.	.	.	.
=80	=80	=80	=80	=80	=80	=80	=80	=80	=80	=80	=80	=80	=80	=80
2.r	2.r	8b	4a	4f	2r	2r	2.r	2.r	8B	2.r	2.r	2.r	2.r	2.r
.	.	8cc	.	.	.	.	.	.	8c	.	.	.	.	.
.	.	8b	4a	4f	.	.	.	.	8B	.	.	.	.	.
.	.	8cc	.	.	.	.	.	.	8c	.	.	.	.	.
.	.	[4ff	4c	4A	4A	4A	.	.	[4f	.	.	.	.	.
=81	=81	=81	=81	=81	=81	=81	=81	=81	=81	=81	=81	=81	=81	=81
2.r	2.r	4ff]	4d	4B-	4B-	4B-	2.r	2.r	4f]	2.r	2.r	2.r	2.r	2.r
.	.	4dd	2r	2r	2r	2r	.	.	4d	.	.	.	.	.
.	.	4b-	.	.	.	.	.	.	4B-	.	.	.	.	.
=82	=82	=82	=82	=82	=82	=82	=82	=82	=82	=82	=82	=82	=82	=82
4r	2.r	4g	4d	4B-	4BB-	4BB-	2.r	2.r	4G	2.r	2.r	2.r	2.r	2.r
8ccc#	.	8cc#	2r	2r	2r	2r	.	.	8c#	.	.	.	.	.
8ddd	.	8dd	.	.	.	.	.	.	8d	.	.	.	.	.
8ccc#	.	8cc#	.	.	.	.	.	.	8c#	.	.	.	.	.
8ddd	.	8dd	.	.	.	.	.	.	8d	.	.	.	.	.
=83	=83	=83	=83	=83	=83	=83	=83	=83	=83	=83	=83	=83	=83	=83
4ddd	2.r	4dd	2r	2r	2r	2r	2.r	2.r	4d	2.r	2.r	2.r	2.r	2.r
8ccc	.	8cc	.	.	.	.	.	.	8c	.	.	.	.	.
8bb-	.	8b-	.	.	.	.	.	.	8B-	.	.	.	.	.
8aa	.	8a	4d	4B-	4BB-	4BB-	.	.	8A	.	.	.	.	.
8gg	.	8g	.	.	.	.	.	.	8G	.	.	.	.	.
=84	=84	=84	=84	=84	=84	=84	=84	=84	=84	=84	=84	=84	=84	=84
2ff	2.r	2f	2A	2c	2.C	2.C	2.r	2.r	2F	2.r	2.r	2.r	2.r	2.r
4gg	.	4g	4B-	4e	.	.	.	.	4G	.	.	.	.	.
=85	=85	=85	=85	=85	=85	=85	=85	=85	=85	=85	=85	=85	=85	=85
4ff	2.r	4f	4A	4f	4FF	4FF	2r	2r	4F	2.r	2.r	2.r	2.r	2.r
2r	.	4r	2r	2r	2r	2r	.	.	2r	.	.	.	.	.
.	.	8f	.	.	.	.	8f	8f	.	.	.	.	.	.
.	.	8a	.	.	.	.	8a	8a	.	.	.	.	.	.
=86	=86	=86	=86	=86	=86	=86	=86	=86	=86	=86	=86	=86	=86	=86
2.r	2.r	8cc	4A 4f	4f 4A	4F	4F	8cc	8cc	2.r	2.r	2.r	2.r	2.r	2.r
.	.	8b	.	.	.	.	8b	8b	.	.	.	.	.	.
.	.	8cc	2r	2r	2r	2r	8cc	8cc	.	.	.	.	.	.
.	.	8r	.	.	.	.	8r	8r	.	.	.	.	.	.
.	.	8a	.	.	.	.	8a	8a	.	.	.	.	.	.
.	.	8cc	.	.	.	.	8cc	8cc	.	.	.	.	.	.
=87	=87	=87	=87	=87	=87	=87	=87	=87	=87	=87	=87	=87	=87	=87
2.r	2.r	8ee-	4f 4cc 4A	4e- 4c	4F	4F	8ee-	8ee-	2r	2.r	2.r	2.r	2.r	2.r
.	.	8dd	.	.	.	.	8dd	8dd	.	.	.	.	.	.
.	.	8ee-	2r	2r	2r	2r	8ee-	8ee-	.	.	.	.	.	.
.	.	8r	.	.	.	.	8r	4.r	.	.	.	.	.	.
.	.	8f	.	.	.	.	8f	.	8F	.	.	.	.	.
.	.	8a	.	.	.	.	8a	.	8A	.	.	.	.	.
=88	=88	=88	=88	=88	=88	=88	=88	=88	=88	=88	=88	=88	=88	=88
2.r	2.r	8cc	2r	2.r	2.r	2.r	4cc	2.r	8c	2.r	2.r	2.r	2.r	2.r
.	.	8b	.	.	.	.	.	.	8B	.	.	.	.	.
.	.	8cc	.	.	.	.	4r	.	8c	.	.	.	.	.
.	.	8b	.	.	.	.	.	.	8B	.	.	.	.	.
.	.	8cc	8A	.	.	.	8cc	.	8c	.	.	.	.	.
.	.	8dd	8B-	.	.	.	8dd	.	8d	.	.	.	.	.
=89	=89	=89	=89	=89	=89	=89	=89	=89	=89	=89	=89	=89	=89	=89
2.r	2.r	8ee-	4c	2.r	2.r	2.r	8ee-	2.r	8e-	2.r	2.r	2.r	2.r	2.r
.	.	8dd	.	.	.	.	4.r	.	8d	.	.	.	.	.
.	.	8ee-	4r	.	.	.	.	.	8e-	.	.	.	.	.
.	.	8dd	.	.	.	.	.	.	8d	.	.	.	.	.
.	.	8ee-	8c	.	.	.	8ee-	.	8e-	.	.	.	.	.
.	.	8ee	8c#	.	.	.	8ee	.	8e	.	.	.	.	.
=90	=90	=90	=90	=90	=90	=90	=90	=90	=90	=90	=90	=90	=90	=90
2.r	2.r	8ff	8d	4B-	4BB-	4BB-	8ff	2.r	8f	2.r	2.r	2.r	2.r	2.r
.	.	8ee	8c#	.	.	.	8ee	.	8e	.	.	.	.	.
.	.	8ff	8d	4B-	4BB-	4BB-	8ff	.	8f	.	.	.	.	.
.	.	8ee	8c#	.	.	.	8ee	.	8e	.	.	.	.	.
.	.	8ff	8d	4B-	4BB-	4BB-	8ff	.	8f	.	.	.	.	.
.	.	8ee	8c#	.	.	.	8ee	.	8e	.	.	.	.	.
=91	=91	=91	=91	=91	=91	=91	=91	=91	=91	=91	=91	=91	=91	=91
2.r	2.r	4ff	4d	4B-	4BB-	4BB-	4ff	2.r	4f	2.r	2.r	2.r	2.r	2.r
.	.	4gg	4e-	2r	2r	2r	4gg	.	4g	.	.	.	.	.
.	.	4ee	4c#	.	.	.	4ee	.	4e	.	.	.	.	.
=92	=92	=92	=92	=92	=92	=92	=92	=92	=92	=92	=92	=92	=92	=92
2.r	2.r	2ff	4d	4B-	4BB-	4BB-	2ff	2.r	2f	2.r	2.r	2.r	2.r	2.r
.	.	.	2r	2r	2r	2r	.	.	.	.	.	.	.	.
.	.	8dd	.	.	.	.	8dd	.	8d	.	.	.	.	.
.	.	8b-	.	.	.	.	8b-	.	8B-	.	.	.	.	.
=93	=93	=93	=93	=93	=93	=93	=93	=93	=93	=93	=93	=93	=93	=93
2.r	2.r	2f	2r	2r	2r	2r	2f	2.r	2F	2.r	2.r	2.r	2.r	2.r
.	.	4f#	4B-	4D	4D	4D	4f#	.	4F#	.	.	.	.	.
=94	=94	=94	=94	=94	=94	=94	=94	=94	=94	=94	=94	=94	=94	=94
2.r	2.r	8g	4B-	4E-	4E-	4E-	8g	2.r	8G	2.r	2.r	2.r	2.r	2.r
.	.	8f#	.	.	.	.	8f#	.	8F#	.	.	.	.	.
.	.	8g	4B-	4E-	4E-	4E-	8g	.	8G	.	.	.	.	.
.	.	8f#	.	.	.	.	8f#	.	8F#	.	.	.	.	.
.	.	8g	4B-	4E-	4E-	4E-	8g	.	8G	.	.	.	.	.
.	.	8f#	.	.	.	.	8f#	.	8F#	.	.	.	.	.
=95	=95	=95	=95	=95	=95	=95	=95	=95	=95	=95	=95	=95	=95	=95
2.r	2.r	4g	4B-	2E-	2E-	2E-	4g	2.r	4G	2.r	2.r	2.r	2.r	2.r
.	.	4ee-	4B	.	.	.	4ee-	.	4e-	.	.	.	.	.
.	.	8dd	4c	4E	4E	4E	8dd	.	8d	.	.	.	.	.
.	.	8cc	.	.	.	.	8cc	.	8c	.	.	.	.	.
=96	=96	=96	=96	=96	=96	=96	=96	=96	=96	=96	=96	=96	=96	=96
2r	2.r	2b-	2d	2.F	2.F	2.F	2b-	2.r	2B-	2.r	2.r	2.r	2.r	2.r
4ff	.	4cc	4e-	.	.	.	4cc	.	4c	.	.	.	.	.
=97	=97	=97	=97	=97	=97	=97	=97	=97	=97	=97	=97	=97	=97	=97
8bb-	2.r	4b-	4d	4B-	8BB-	8BB-	4b-	2.r	4B-	2.r	2.r	2.r	2.r	2.r
8aa	.	.	.	.	8AA	8AA	.	.	.	.	.	.	.	.
8bb-	.	4r	4r	2r	8BB-	8BB-	4r	.	2r	.	.	.	.	.
8aa	.	.	.	.	8AA	8AA	.	.	.	.	.	.	.	.
8bb-	.	4b-	4b-	.	8BB-	8BB-	4b-	.	.	.	.	.	.	.
8aa	.	.	.	.	8AA	8AA	.	.	.	.	.	.	.	.
=98	=98	=98	=98	=98	=98	=98	=98	=98	=98	=98	=98	=98	=98	=98
2.bb-	2.r	8aa-	8ff	2.r	4BB-	4BB-	8aa-	8ff	2.d	2.r	2.r	2.r	2.r	2.r
.	.	8gg	8ee	.	.	.	8gg	8ee	.	.	.	.	.	.
.	.	8aa-	8ff	.	2r	2r	8aa-	8ff	.	.	.	.	.	.
.	.	8gg	8ee	.	.	.	8gg	8ee	.	.	.	.	.	.
.	.	8aa-	8ff	.	.	.	8aa-	8ff	.	.	.	.	.	.
.	.	8ff#	8dd	.	.	.	8ff#	8dd	.	.	.	.	.	.
=99	=99	=99	=99	=99	=99	=99	=99	=99	=99	=99	=99	=99	=99	=99
8bb-	2.r	4gg	4ee-	2r	8BB-	8BB-	4gg	4ee-	4e-	2.r	2.r	2.r	2.r	2.r
8aa	.	.	.	.	8AA	8AA	.	.	.	.	.	.	.	.
8bb-	.	2r	4r	.	8BB-	8BB-	4r	4r	2r	.	.	.	.	.
8aa	.	.	.	.	8AA	8AA	.	.	.	.	.	.	.	.
8bb-	.	.	4g	4E-	8BB-	8BB-	4gg	4e-	.	.	.	.	.	.
8aa	.	.	.	.	8AA	8AA	.	.	.	.	.	.	.	.
=100	=100	=100	=100	=100	=100	=100	=100	=100	=100	=100	=100	=100	=100	=100
4bb-	2.r	4a	8e-	8c	[2.BB-	[2.BB-	8ee-	8cc	2.A	2.r	2.r	2.r	2.r	2.r
.	.	.	8d	8B	.	.	8dd	8b	.	.	.	.	.	.
2r	.	4a	8e-	8c	.	.	8ee-	8cc	.	.	.	.	.	.
.	.	.	8d	8B	.	.	8dd	8b	.	.	.	.	.	.
.	.	4a	8e-	8c	.	.	8ee-	8cc	.	.	.	.	.	.
.	.	.	8f	8d	.	.	8ff	8dd	.	.	.	.	.	.
=101	=101	=101	=101	=101	=101	=101	=101	=101	=101	=101	=101	=101	=101	=101
4bb-	2.r	4b-	4d	4B-	4BB-]	4BB-]	4dd	4b-	4B-	2.r	2.r	2.r	2.r	2.r
2r	.	2r	2r	2r	2r	2r	2r	2r	2r	.	.	.	.	.
==	==	==	==	==	==	==	==	==	==	==	==	==	==	==
*-	*-	*-	*-	*-	*-	*-	*-	*-	*-	*-	*-	*-	*-	*-
!!!RWG1: This file contains only pitch and duration data.
!!!RWG2: Transposing instruments are not transposed.
!!!RWG3: Spines may have incompatible meters.
!!!RWG4: Durations of rests and tied notes may be interpreted.
!!!RWG: Key is interpreted using the Humdrum key tool.
!!!AFT: stage1
!!!END: 1997/04/15
!!format changes:
!!content changes:
!!public access: complete
!!!KEY: 126447650
!!!EMD: Converted from MuseData to Humdrum Dec 16, 2000, by Andreas Kornstaedt using muse2kern.
